X: 0
T: Les Anges Dans Nos Campagnes
Z: Unknown
Z: Public Domain
L: 1/4
M: 4/4
Q: 1/4=120
V: P1 name="Staff"
%%MIDI program 1 19
K: F
[V: P1]  A A A A/c/ | c3/ B/ A F | A A/G/ A A/c/ | c3/ B/ A2 | A A A A/c/ | c3/ B/ A F | A A/G/ A A/c/ | c3/ B/ A2 | c2 d/c/ B/A/ | B2 c/B/ A/G/ | A2 B/A/ G/F/ | G3/ G/ C2 | F G A B | A2 G2 | c2 d/c/ B/A/ | B2 c/B/ A/G/ | A2 B/A/ G/F/ | G3/ G/ C2 | F G A B | A2 G2 | F4|]

